!!!SOCIAL_FUNCTION: tick dance songs
!!!PDT:	1943
!!!LING_GROUP: Muskogean
!!!LANG: Non-Tone
Specific Region: Oklahoma, California, Mississippi, Louisiana, Texas, Alabama
!!!REG: Southeast
!!!COM: Anon.
!!!OTL: Tick Dance Song (g)
!!!ODT: <1933//
!!!MPN: Lysander Tubby
!!!MLC: Philadelphia, Mississippi, United States of America
!! Song was recorded in January 1933.
!!!AGN: monody
!!!SOCIAL_FUNCTION: tick dance song
!!!AMT: irregular
!!!RWG: Transcribed pitches, durations, and meters are only approximate.
**kern
*ICvox
*Imale
*clefF4
*k[b-e-a-d-]
*M2/4
*MM84
=1-
8A-
8A
8A-
8F
*M3/4
=2
8E-
8E-
8E-
8E-
4B-
*M3/8
=3
4B-
8F
*M2/4
=4
8A-
8A-
4F;
=5
8E-
8E-
8E-
8E-
=6
8E-
8E-
8E-
8r
=7
4E-
8E-
8BB-
=8
8E-
8E-
4F
=9
8F
8A-
8A-
8F
=10
8E-
8E-
8E-
8E-
=11
8E-
8E-
8E-
8r
=12
4E
8E-
8BB-
=13
8E-
8E-
8F
8r
=14
8F
8F
8F
8E-
=15
8E-
8E-
8E-
8E-
=16
8E-
8E-
8E-
8r
=17
4E-
8E-
8BB-
=18
8E-
8E-
4E-
=19
8E-
8B-
8B-
8A-
*M3/4
=20
8F
8E-
8E-
8E-
4B-
*M3/8
=21
4B-
8F
*M2/4
=22
8A-
8A-
4F;
=23
8E-
8E-
8E-
8E-
=24
8E-
8E-
8E-
8r
=25
4E-
8E-
8BB-
=26
8E-
8E-
4F
=27
8F
8A-
8A-
8F
=28
8E-
8E-
8E-
8E-
=29
8E-
8E-
8E-
8r
=30
4E-
8E-
8BB-
=31
8E-
8E-
4E-
=32
8E-
8B-
8B-
8A-
*M3/4
=33
8F
8E-
8E-
8E-
4B-
*M3/8
=34
4B-
8F
*M2/4
=35
8A-
8A-
4F;
=36
8E-
8E-
8E-
8E-
=37
8E-
8E-
8E-
8r
=38
4E-
8E-
8BB-
=39
8E-
8E-
4F
=40
8F
8A-
8A-
8F
=41
8E-
8E-
8E-
8E-
=42
8E-
8E-
8E-
8r
=43
4E-
8E-
8BB-
=44
8E-
8E-
4E-
==
*-
!!!CNT: Choctaw
!!!TXO: Choctaw
!!!OCY: United States
!!!OCL: Frances Densmore
!!!YOR: Frances Densmore, "Choctaw Music"
!!!YOR: Bulletin 136, page 141, No. 16
!!!PPR: Smithsonian Institution, Bureau of American Ethnology
!!!PPR: Government Printing Office
!!!PDT: 1943
!!!PPP: Washington, DC, United States of America
!!!YEC: Electronic Copyright 2000 David Huron
!!!YER: August 2000
!!!YEN: United States of America
!!!ENC: David Huron
!!!RDT: August 27, 2000
!!!EEV: Release 1.0
!!!AIN: vox
